shader_type spatial;
render_mode depth_draw_opaque;
void vertex() {
	Z_CLIP_SCALE = 0.1f;
	// Called for every vertex the material is visible on.
}

void fragment() {
	// Called for every pixel the material is visible on.
}

//void light() {
//	// Called for every pixel for every light affecting the material.
//	// Uncomment to replace the default light processing function with this one.
//}
